X:1
T:Molly Bawn and Brian Og
M:4/4
L:1/4
K:C
 C D| E E E E| E D C E| G4-| G z E F| G G G G| A G E G| c4-| c z| A B|\
 c c c c| d c B- A| G G G G| A G C E| G G G G| B A F D| C4-| C2||
